assets/icons/bowtie/1.22/uE65F-package.svg

<svg xmlns="http://www.w3.org/2000/svg" viewBox="0 0 448 448" enable-background="new 0 0 448 448"><path d="M324.6 96c20.619-31.512 8.643-56.471.744-67.297-7.969-10.938-21.5-18.469-37.094-20.672-17.375-2.453-35.094 1.984-48.375 12.266-11.705 9.066-23.109 29.865-31.877 49.051-8.771-19.188-20.184-39.99-31.904-49.066-13.688-10.594-32.594-15.094-50.563-12.188-15.219 2.531-28.094 10.281-35.344 21.266-5.667 8.648-18.33 34.687 1.749 66.64h-91.936v352h416v-352h-91.4zm-65.131-50.406c6.469-4.984 15.156-7.109 24.313-5.891 6.875.984 12.906 4 15.719 7.859 9.906 13.563 4.156 29.844-17.063 48.438h-51.156c9.499-22.828 20.937-44.781 28.187-50.406zm-142.531 1.344c2.25-3.438 7.563-6.234 13.844-7.281 9.5-1.484 18.969.703 25.719 5.922 7.281 5.625 18.719 27.594 28.219 50.422h-51.125c-14.97-13.267-28.189-31.517-16.657-49.063zm75.062 369.062h-160v-128h160v128zm0-160h-160v-128h160v128zm192 160h-160v-128h160v128zm0-160h-160v-128h160v128z"/></svg>

<svg xmlns="http://www.w3.org/2000/svg" viewBox="0 0 448 448"><path d="M324.6 96c20.62-31.512 8.643-56.47.744-67.297-7.97-10.938-21.5-18.47-37.094-20.672-17.375-2.45-35.094 1.987-48.375 12.27-11.705 9.065-23.11 29.864-31.877 49.05-8.77-19.188-20.184-39.99-31.904-49.066C162.406 9.688 143.5 5.188 125.53 8.094c-15.218 2.53-28.093 10.28-35.343 21.266-5.667 8.648-18.33 34.687 1.75 66.64H0v352h416V96h-91.4zm-65.13-50.406c6.468-4.984 15.155-7.11 24.312-5.89 6.875.983 12.906 4 15.72 7.858 9.905 13.563 4.155 29.844-17.064 48.438h-51.156c9.5-22.828 20.937-44.78 28.187-50.406zm-142.532 1.344c2.25-3.438 7.563-6.234 13.844-7.28 9.5-1.485 18.97.702 25.72 5.92 7.28 5.626 18.718 27.595 28.218 50.423h-51.125c-14.97-13.264-28.19-31.514-16.657-49.06zM192 416H32V288h160v128zm0-160H32V128h160v128zm192 160H224V288h160v128zm0-160H224V128h160v128z"/></svg>
